images/38853.svg

<?xml version="1.0" encoding="UTF-8"?>
<svg xmlns="http://www.w3.org/2000/svg" xmlns:xlink="http://www.w3.org/1999/xlink" width="300pt" height="300pt" viewBox="0 0 300 300" version="1.1">
<defs>
<g>
<symbol overflow="visible" id="glyph0-0">
<path style="stroke:none;" d="M 0.796875 2.828125 L 0.796875 -11.28125 L 8.796875 -11.28125 L 8.796875 2.828125 Z M 1.703125 1.9375 L 7.90625 1.9375 L 7.90625 -10.390625 L 1.703125 -10.390625 Z M 1.703125 1.9375 "/>
</symbol>
<symbol overflow="visible" id="glyph0-1">
<path style="stroke:none;" d="M 6.3125 -10.59375 C 5.164062 -10.59375 4.253906 -10.164062 3.578125 -9.3125 C 2.898438 -8.457031 2.5625 -7.296875 2.5625 -5.828125 C 2.5625 -4.359375 2.898438 -3.195312 3.578125 -2.34375 C 4.253906 -1.488281 5.164062 -1.0625 6.3125 -1.0625 C 7.457031 -1.0625 8.363281 -1.488281 9.03125 -2.34375 C 9.695312 -3.195312 10.03125 -4.359375 10.03125 -5.828125 C 10.03125 -7.296875 9.695312 -8.457031 9.03125 -9.3125 C 8.363281 -10.164062 7.457031 -10.59375 6.3125 -10.59375 Z M 6.3125 -11.875 C 7.945312 -11.875 9.253906 -11.328125 10.234375 -10.234375 C 11.210938 -9.140625 11.703125 -7.671875 11.703125 -5.828125 C 11.703125 -3.984375 11.210938 -2.507812 10.234375 -1.40625 C 9.253906 -0.3125 7.945312 0.234375 6.3125 0.234375 C 4.664062 0.234375 3.351562 -0.3125 2.375 -1.40625 C 1.394531 -2.507812 0.90625 -3.984375 0.90625 -5.828125 C 0.90625 -7.671875 1.394531 -9.140625 2.375 -10.234375 C 3.351562 -11.328125 4.664062 -11.875 6.3125 -11.875 Z M 6.3125 -11.875 "/>
</symbol>
<symbol overflow="visible" id="glyph0-2">
<path style="stroke:none;" d="M 1.578125 -11.671875 L 3.15625 -11.671875 L 3.15625 -6.890625 L 8.890625 -6.890625 L 8.890625 -11.671875 L 10.46875 -11.671875 L 10.46875 0 L 8.890625 0 L 8.890625 -5.5625 L 3.15625 -5.5625 L 3.15625 0 L 1.578125 0 Z M 1.578125 -11.671875 "/>
</symbol>
<symbol overflow="visible" id="glyph0-3">
<path style="stroke:none;" d="M 1.578125 -11.671875 L 3.703125 -11.671875 L 8.875 -1.90625 L 8.875 -11.671875 L 10.40625 -11.671875 L 10.40625 0 L 8.28125 0 L 3.109375 -9.765625 L 3.109375 0 L 1.578125 0 Z M 1.578125 -11.671875 "/>
</symbol>
<symbol overflow="visible" id="glyph1-0">
<path style="stroke:none;" d="M 0.640625 2.296875 L 0.640625 -9.171875 L 7.140625 -9.171875 L 7.140625 2.296875 Z M 1.375 1.578125 L 6.421875 1.578125 L 6.421875 -8.4375 L 1.375 -8.4375 Z M 1.375 1.578125 "/>
</symbol>
<symbol overflow="visible" id="glyph1-1">
<path style="stroke:none;" d="M 2.5 -1.078125 L 6.96875 -1.078125 L 6.96875 0 L 0.953125 0 L 0.953125 -1.078125 C 1.441406 -1.578125 2.101562 -2.25 2.9375 -3.09375 C 3.78125 -3.945312 4.3125 -4.5 4.53125 -4.75 C 4.9375 -5.207031 5.21875 -5.597656 5.375 -5.921875 C 5.539062 -6.242188 5.625 -6.554688 5.625 -6.859375 C 5.625 -7.367188 5.445312 -7.78125 5.09375 -8.09375 C 4.75 -8.40625 4.289062 -8.5625 3.71875 -8.5625 C 3.3125 -8.5625 2.882812 -8.492188 2.4375 -8.359375 C 2 -8.222656 1.523438 -8.007812 1.015625 -7.71875 L 1.015625 -9.015625 C 1.535156 -9.222656 2.019531 -9.378906 2.46875 -9.484375 C 2.914062 -9.597656 3.320312 -9.65625 3.6875 -9.65625 C 4.675781 -9.65625 5.460938 -9.40625 6.046875 -8.90625 C 6.628906 -8.414062 6.921875 -7.757812 6.921875 -6.9375 C 6.921875 -6.550781 6.847656 -6.179688 6.703125 -5.828125 C 6.554688 -5.484375 6.289062 -5.078125 5.90625 -4.609375 C 5.800781 -4.484375 5.460938 -4.125 4.890625 -3.53125 C 4.328125 -2.945312 3.53125 -2.128906 2.5 -1.078125 Z M 2.5 -1.078125 "/>
</symbol>
</g>
</defs>
<g id="surface40069">
<rect x="0" y="0" width="300" height="300" style="fill:rgb(100%,100%,100%);fill-opacity:1;stroke:none;"/>
<path style="fill:none;stroke-width:1;stroke-linecap:butt;stroke-linejoin:miter;stroke:rgb(0%,0%,0%);stroke-opacity:1;stroke-miterlimit:10;" d="M 95.863281 142.136719 L 95.863281 142.136719 M 94.601562 139.414062 L 93.746094 140.011719 M 93.34375 136.691406 L 91.632812 137.882812 M 92.085938 133.96875 L 89.519531 135.753906 M 90.828125 131.246094 L 87.402344 133.625 M 89.570312 128.523438 L 85.289062 131.496094 M 88.3125 125.796875 L 83.175781 129.371094 M 87.054688 123.074219 L 81.058594 127.242188 M 85.796875 120.351562 L 78.945312 125.113281 M 84.535156 117.628906 L 76.832031 122.984375 M 83.277344 114.90625 L 74.71875 120.855469 M 82.019531 112.179688 L 72.601562 118.726562 M 80.761719 109.457031 L 70.488281 116.601562 M 79.570312 106.878906 L 68.484375 114.585938 "/>
<path style="fill:none;stroke-width:1.2;stroke-linecap:butt;stroke-linejoin:miter;stroke:rgb(0%,0%,0%);stroke-opacity:1;stroke-miterlimit:10;" d="M 95.863281 142.136719 L 117.695312 173.546875 "/>
<path style="fill:none;stroke-width:1.2;stroke-linecap:butt;stroke-linejoin:miter;stroke:rgb(0%,0%,0%);stroke-opacity:1;stroke-miterlimit:10;" d="M 95.863281 142.136719 L 64.453125 163.972656 "/>
<path style="fill:none;stroke-width:1.2;stroke-linecap:butt;stroke-linejoin:miter;stroke:rgb(0%,0%,0%);stroke-opacity:1;stroke-miterlimit:10;" d="M 95.863281 142.136719 L 111.566406 131.222656 "/>
<path style="fill:none;stroke-width:1.2;stroke-linecap:butt;stroke-linejoin:miter;stroke:rgb(0%,0%,100%);stroke-opacity:1;stroke-miterlimit:10;" d="M 111.566406 131.222656 L 127.269531 120.304688 "/>
<path style="fill:none;stroke-width:1.2;stroke-linecap:butt;stroke-linejoin:miter;stroke:rgb(0%,0%,0%);stroke-opacity:1;stroke-miterlimit:10;" d="M 117.695312 173.546875 L 155.808594 170.339844 "/>
<path style="fill:none;stroke-width:1.2;stroke-linecap:butt;stroke-linejoin:miter;stroke:rgb(0%,0%,0%);stroke-opacity:1;stroke-miterlimit:10;" d="M 155.808594 170.339844 L 172.09375 135.730469 "/>
<path style="fill:none;stroke-width:1.2;stroke-linecap:butt;stroke-linejoin:miter;stroke:rgb(0%,0%,0%);stroke-opacity:1;stroke-miterlimit:10;" d="M 165.582031 170.710938 L 178.609375 143.019531 "/>
<path style="fill:none;stroke-width:1.2;stroke-linecap:butt;stroke-linejoin:miter;stroke:rgb(0%,0%,0%);stroke-opacity:1;stroke-miterlimit:10;" d="M 177.644531 201.746094 L 155.808594 170.339844 "/>
<path style="fill:none;stroke-width:1.2;stroke-linecap:butt;stroke-linejoin:miter;stroke:rgb(0%,0%,0%);stroke-opacity:1;stroke-miterlimit:10;" d="M 172.09375 135.730469 L 210.207031 132.523438 "/>
<path style="fill:none;stroke-width:1.2;stroke-linecap:butt;stroke-linejoin:miter;stroke:rgb(0%,0%,0%);stroke-opacity:1;stroke-miterlimit:10;" d="M 210.207031 132.523438 L 232.042969 163.929688 "/>
<path style="fill:none;stroke-width:1.2;stroke-linecap:butt;stroke-linejoin:miter;stroke:rgb(0%,0%,0%);stroke-opacity:1;stroke-miterlimit:10;" d="M 205 140.800781 L 222.46875 165.925781 "/>
<path style="fill:none;stroke-width:1.2;stroke-linecap:butt;stroke-linejoin:miter;stroke:rgb(0%,0%,0%);stroke-opacity:1;stroke-miterlimit:10;" d="M 210.207031 132.523438 L 218.347656 115.21875 "/>
<path style="fill:none;stroke-width:1.2;stroke-linecap:butt;stroke-linejoin:miter;stroke:rgb(100%,0%,0%);stroke-opacity:1;stroke-miterlimit:10;" d="M 218.347656 115.21875 L 226.492188 97.914062 "/>
<path style="fill:none;stroke-width:1.2;stroke-linecap:butt;stroke-linejoin:miter;stroke:rgb(0%,0%,0%);stroke-opacity:1;stroke-miterlimit:10;" d="M 232.042969 163.929688 L 215.757812 198.542969 "/>
<path style="fill:none;stroke-width:1.2;stroke-linecap:butt;stroke-linejoin:miter;stroke:rgb(0%,0%,0%);stroke-opacity:1;stroke-miterlimit:10;" d="M 232.042969 163.929688 L 251.097656 162.328125 "/>
<path style="fill:none;stroke-width:1.2;stroke-linecap:butt;stroke-linejoin:miter;stroke:rgb(100%,0%,0%);stroke-opacity:1;stroke-miterlimit:10;" d="M 251.097656 162.328125 L 270.15625 160.726562 "/>
<path style="fill:none;stroke-width:1.2;stroke-linecap:butt;stroke-linejoin:miter;stroke:rgb(0%,0%,0%);stroke-opacity:1;stroke-miterlimit:10;" d="M 215.757812 198.542969 L 177.644531 201.746094 "/>
<path style="fill:none;stroke-width:1.2;stroke-linecap:butt;stroke-linejoin:miter;stroke:rgb(0%,0%,0%);stroke-opacity:1;stroke-miterlimit:10;" d="M 211.191406 189.894531 L 180.699219 192.457031 "/>
<path style=" stroke:none;fill-rule:nonzero;fill:rgb(100%,100%,100%);fill-opacity:1;" d="M 258.15625 151.226562 L 283.15625 151.226562 L 283.15625 170.226562 L 258.15625 170.226562 Z M 258.15625 151.226562 "/>
<g style="fill:rgb(100%,0%,0%);fill-opacity:1;">
  <use xlink:href="#glyph0-1" x="258.15625" y="166.078125"/>
  <use xlink:href="#glyph0-2" x="270.75" y="166.078125"/>
</g>
<path style=" stroke:none;fill-rule:nonzero;fill:rgb(100%,100%,100%);fill-opacity:1;" d="M 214.492188 88.414062 L 239.492188 88.414062 L 239.492188 107.414062 L 214.492188 107.414062 Z M 214.492188 88.414062 "/>
<g style="fill:rgb(100%,0%,0%);fill-opacity:1;">
  <use xlink:href="#glyph0-1" x="214.492188" y="103.265625"/>
  <use xlink:href="#glyph0-2" x="227.085938" y="103.265625"/>
</g>
<path style="fill:none;stroke-width:1.2;stroke-linecap:butt;stroke-linejoin:miter;stroke:rgb(0%,0%,0%);stroke-opacity:1;stroke-miterlimit:10;" d="M 59.96875 164.347656 L 61.574219 183.40625 "/>
<path style="fill:none;stroke-width:1.2;stroke-linecap:butt;stroke-linejoin:miter;stroke:rgb(100%,0%,0%);stroke-opacity:1;stroke-miterlimit:10;" d="M 61.574219 183.40625 L 63.175781 202.464844 "/>
<path style="fill:none;stroke-width:1.2;stroke-linecap:butt;stroke-linejoin:miter;stroke:rgb(0%,0%,0%);stroke-opacity:1;stroke-miterlimit:10;" d="M 68.9375 163.59375 L 70.542969 182.652344 "/>
<path style="fill:none;stroke-width:1.2;stroke-linecap:butt;stroke-linejoin:miter;stroke:rgb(100%,0%,0%);stroke-opacity:1;stroke-miterlimit:10;" d="M 70.542969 182.652344 L 72.144531 201.710938 "/>
<path style="fill:none;stroke-width:1.2;stroke-linecap:butt;stroke-linejoin:miter;stroke:rgb(0%,0%,0%);stroke-opacity:1;stroke-miterlimit:10;" d="M 64.453125 163.972656 L 47.148438 155.832031 "/>
<path style="fill:none;stroke-width:1.2;stroke-linecap:butt;stroke-linejoin:miter;stroke:rgb(100%,0%,0%);stroke-opacity:1;stroke-miterlimit:10;" d="M 47.148438 155.832031 L 29.84375 147.6875 "/>
<path style=" stroke:none;fill-rule:nonzero;fill:rgb(100%,100%,100%);fill-opacity:1;" d="M 61.660156 192.585938 L 74.660156 192.585938 L 74.660156 211.585938 L 61.660156 211.585938 Z M 61.660156 192.585938 "/>
<g style="fill:rgb(100%,0%,0%);fill-opacity:1;">
  <use xlink:href="#glyph0-1" x="61.660156" y="207.4375"/>
</g>
<path style=" stroke:none;fill-rule:nonzero;fill:rgb(100%,100%,100%);fill-opacity:1;" d="M 4.84375 138.1875 L 29.84375 138.1875 L 29.84375 157.1875 L 4.84375 157.1875 Z M 4.84375 138.1875 "/>
<g style="fill:rgb(100%,0%,0%);fill-opacity:1;">
  <use xlink:href="#glyph0-2" x="4.84375" y="153.039062"/>
  <use xlink:href="#glyph0-1" x="16.875" y="153.039062"/>
</g>
<path style=" stroke:none;fill-rule:nonzero;fill:rgb(100%,100%,100%);fill-opacity:1;" d="M 111.269531 108.804688 L 144.269531 108.804688 L 144.269531 131.804688 L 111.269531 131.804688 Z M 111.269531 108.804688 "/>
<g style="fill:rgb(0%,0%,100%);fill-opacity:1;">
  <use xlink:href="#glyph0-3" x="111.269531" y="123.65625"/>
  <use xlink:href="#glyph0-2" x="123.238281" y="123.65625"/>
</g>
<g style="fill:rgb(0%,0%,100%);fill-opacity:1;">
  <use xlink:href="#glyph1-1" x="135.269531" y="128.539062"/>
</g>
</g>
</svg>

<svg xmlns="http://www.w3.org/2000/svg" xmlns:xlink="http://www.w3.org/1999/xlink" width="300pt" height="300pt" viewBox="0 0 300 300"><defs><symbol overflow="visible"><path d="M.797 2.828v-14.11h8V2.83zm.906-.89h6.203v-12.33H1.703zm0 0"/></symbol><symbol overflow="visible" id="a"><path d="M6.313-10.594c-1.15 0-2.06.43-2.735 1.28-.68.857-1.015 2.017-1.015 3.486 0 1.47.335 2.633 1.015 3.484.676.856 1.586 1.28 2.735 1.28 1.144.002 2.05-.424 2.718-1.28.665-.85 1-2.015 1-3.484 0-1.47-.335-2.63-1-3.484-.667-.852-1.573-1.282-2.717-1.282zm0-1.28c1.632 0 2.94.546 3.92 1.64.978 1.093 1.47 2.562 1.47 4.406 0 1.844-.492 3.32-1.47 4.422-.98 1.093-2.288 1.64-3.92 1.64-1.65 0-2.96-.546-3.938-1.64-.98-1.102-1.47-2.578-1.47-4.422 0-1.844.49-3.313 1.47-4.406.977-1.094 2.29-1.64 3.938-1.64zm0 0"/></symbol><symbol overflow="visible" id="b"><path d="M1.578-11.672h1.578v4.78H8.89v-4.78h1.58V0H8.89v-5.563H3.157V0H1.578zm0 0"/></symbol><symbol overflow="visible" id="c"><path d="M1.578-11.672h2.125l5.172 9.766v-9.766h1.53V0H8.282L3.11-9.766V0H1.577zm0 0"/></symbol><symbol overflow="visible"><path d="M.64 2.297v-11.47h6.5v11.47zm.735-.72h5.047V-8.436H1.375zm0 0"/></symbol><symbol overflow="visible" id="d"><path d="M2.5-1.078h4.47V0H.952v-1.078c.488-.5 1.15-1.172 1.985-2.016C3.78-3.944 4.312-4.5 4.53-4.75c.407-.457.69-.848.845-1.172.164-.32.25-.633.25-.937 0-.507-.18-.92-.53-1.234-.345-.312-.806-.47-1.376-.47-.408.002-.837.072-1.283.205-.437.137-.914.352-1.42.64v-1.296c.518-.207 1.003-.363 1.452-.468.444-.114.85-.172 1.217-.172.99 0 1.774.25 2.36.75.582.492.875 1.148.875 1.97 0 .385-.074.756-.22 1.108-.147.344-.413.75-.796 1.22-.105.124-.445.483-1.015 1.077-.562.585-1.36 1.4-2.39 2.452zm0 0"/></symbol></defs><g><path fill="#fff" d="M0 0h300v300H0z"/><path d="M95.863 142.137m-1.26-2.723l-.857.598m-.402-3.32l-1.71 1.19m.452-3.913l-2.566 1.784m1.308-4.508l-3.426 2.38m2.168-5.103l-4.28 2.973m3.022-5.7l-5.136 3.575m3.88-6.296l-5.997 4.168m4.737-6.89l-6.852 4.76m5.59-7.483l-7.703 5.354m6.445-8.078l-8.558 5.95m7.3-8.676l-9.418 6.547m8.16-9.27l-10.274 7.145m9.082-9.723l-11.086 7.706" stroke="#000" stroke-miterlimit="10" fill="none"/><path d="M95.863 142.137l21.832 31.41M95.863 142.137l-31.41 21.836M95.863 142.137l15.703-10.914" stroke-width="1.2" stroke="#000" stroke-miterlimit="10" fill="none"/><path d="M111.566 131.223l15.704-10.918" stroke-width="1.2" stroke="#00f" stroke-miterlimit="10" fill="none"/><path d="M117.695 173.547l38.114-3.207M155.81 170.34l16.284-34.61M165.582 170.71l13.027-27.69M177.645 201.746L155.81 170.34M172.094 135.73l38.113-3.207M210.207 132.523l21.836 31.407M205 140.8l17.47 25.126M210.207 132.523l8.14-17.304" stroke-width="1.2" stroke="#000" stroke-miterlimit="10" fill="none"/><path d="M218.348 115.22l8.144-17.306" stroke-width="1.2" stroke="#f00" stroke-miterlimit="10" fill="none"/><path d="M232.043 163.93l-16.285 34.613M232.043 163.93l19.055-1.602" stroke-width="1.2" stroke="#000" stroke-miterlimit="10" fill="none"/><path d="M251.098 162.328l19.058-1.6" stroke-width="1.2" stroke="#f00" stroke-miterlimit="10" fill="none"/><path d="M215.758 198.543l-38.113 3.203M211.19 189.895l-30.49 2.562" stroke-width="1.2" stroke="#000" stroke-miterlimit="10" fill="none"/><path d="M258.156 151.227h25v19h-25zm0 0" fill="#fff"/><g fill="#f00"><use xlink:href="#a" x="258.156" y="166.078"/><use xlink:href="#b" x="270.75" y="166.078"/></g><path d="M214.492 88.414h25v19h-25zm0 0" fill="#fff"/><g fill="#f00"><use xlink:href="#a" x="214.492" y="103.266"/><use xlink:href="#b" x="227.086" y="103.266"/></g><path d="M59.97 164.348l1.604 19.058" stroke-width="1.2" stroke="#000" stroke-miterlimit="10" fill="none"/><path d="M61.574 183.406l1.602 19.06" stroke-width="1.2" stroke="#f00" stroke-miterlimit="10" fill="none"/><path d="M68.938 163.594l1.605 19.058" stroke-width="1.2" stroke="#000" stroke-miterlimit="10" fill="none"/><path d="M70.543 182.652l1.602 19.06" stroke-width="1.2" stroke="#f00" stroke-miterlimit="10" fill="none"/><path d="M64.453 163.973l-17.305-8.14" stroke-width="1.2" stroke="#000" stroke-miterlimit="10" fill="none"/><path d="M47.148 155.832l-17.304-8.144" stroke-width="1.2" stroke="#f00" stroke-miterlimit="10" fill="none"/><path d="M61.66 192.586h13v19h-13zm0 0" fill="#fff"/><use xlink:href="#a" x="61.66" y="207.438" fill="#f00"/><path d="M4.844 138.188h25v19h-25zm0 0" fill="#fff"/><g fill="#f00"><use xlink:href="#b" x="4.844" y="153.039"/><use xlink:href="#a" x="16.875" y="153.039"/></g><path d="M111.27 108.805h33v23h-33zm0 0" fill="#fff"/><g fill="#00f"><use xlink:href="#c" x="111.27" y="123.656"/><use xlink:href="#b" x="123.238" y="123.656"/></g><use xlink:href="#d" x="135.27" y="128.539" fill="#00f"/></g></svg>
